;FLAVOR:Marlin
;TIME:8500
;Filament used: 6.78864m
;Layer height: 0.28
;MINX:13.882
;MINY:10.566
;MINZ:0.28
;MAXX:221.131
;MAXY:211.735
;MAXZ:12.6
;Generated with Cura_SteamEngine 4.6.1
M140 S60
M105
M190 S60
M104 S200
M105
M109 S200
M82 ;absolute extrusion mode
; Ender 3 Custom Start G-code
G92 E0 ; Reset Extruder
G28 ; Home all axes
G1 Z2.0 F3000 ; Move Z Axis up little to prevent scratching of Heat Bed
G1 X0.1 Y20 Z0.3 F5000.0 ; Move to start position
G1 X0.1 Y200.0 Z0.3 F1500.0 E15 ; Draw the first line
G1 X0.4 Y200.0 Z0.3 F5000.0 ; Move to side a little
G1 X0.4 Y20 Z0.3 F1500.0 E30 ; Draw the second line
G92 E0 ; Reset Extruder
G1 Z2.0 F3000 ; Move Z Axis up little to prevent scratching of Heat Bed
G1 X5 Y20 Z0.3 F5000.0 ; Move over to prevent blob squish
G92 E0
G92 E0
G1 F1500 E-6.5
;LAYER_COUNT:45
;LAYER:0
M107
G0 F6000 X119.098 Y11.419 Z0.28
;TYPE:SKIRT
G1 F1500 E0
G1 F1200 X119.699 Y11.465 E0.02807
G1 X120.277 Y11.526 E0.05513
G1 X121.241 Y11.66 E0.10045
G1 X121.761 Y11.746 E0.12499
G1 X122.324 Y11.855 E0.15169
G1 X123.207 Y12.057 E0.19387
G1 X123.764 Y12.199 E0.22064
G1 X124.31 Y12.355 E0.24708
G1 X125.161 Y12.627 E0.28868
G1 X125.676 Y12.806 E0.31407
G1 X126.231 Y13.018 E0.34173
G1 X127.061 Y13.366 E0.38364
G1 X127.576 Y13.597 E0.40992
G1 X128.098 Y13.849 E0.43691
G1 X128.927 Y14.284 E0.48051
G1 X129.367 Y14.529 E0.50396
G1 X129.872 Y14.83 E0.53133
G1 X130.696 Y15.359 E0.57693
G1 X131.106 Y15.637 E0.59999
G1 X131.577 Y15.976 E0.62702
G1 X132.341 Y16.566 E0.67196
G1 X132.718 Y16.873 E0.6946
G1 X133.146 Y17.242 E0.72092
G1 X133.663 Y17.713 E0.75348
G1 X133.925 Y17.96 E0.77025
G1 X134.239 Y18.267 E0.7907
G1 X134.619 Y18.658 E0.81609
G1 X135.095 Y19.176 E0.84884
G1 X135.316 Y19.425 E0.86435
G1 X135.612 Y19.769 E0.88548
G1 X135.984 Y20.228 E0.91299
G1 X136.399 Y20.771 E0.94481
G1 X136.595 Y21.036 E0.96016
G1 X136.855 Y21.4 E0.98099
G1 X137.177 Y21.879 E1.00786
G1 X137.567 Y22.496 E1.04185
G1 X137.735 Y22.772 E1.0569
G1 X137.951 Y23.139 E1.07673
G1 X138.241 Y23.665 E1.1047
G1 X138.682 Y24.537 E1.1502
G1 X138.879 Y24.953 E1.17163
G1 X139.117 Y25.497 E1.19928
G1 X139.501 Y26.46 E1.24755
G1 X139.644 Y26.848 E1.26681
G1 X139.84 Y27.434 E1.29558
G1 X140.013 Y28.009 E1.32354
G1 X140.805 Y30.509 E1.44565
G1 X141.634 Y32.887 E1.56292
G1 X142.537 Y35.259 E1.6811
G1 X143.502 Y37.593 E1.79871
G1 X144.553 Y39.947 E1.91875
G1 X145.637 Y42.202 E2.03525
G1 X146.819 Y44.49 E2.15517
G1 X148.042 Y46.704 E2.27294
G1 X149.328 Y48.881 E2.39068
G1 X150.688 Y51.043 E2.50961
G1 X152.087 Y53.134 E2.62676
G1 X153.573 Y55.223 E2.74613
G1 X155.098 Y57.244 E2.86403
G1 X156.681 Y59.223 E2.98203
G1 X158.33 Y61.169 E3.1008
G1 X160.005 Y63.035 E3.21756
G1 X161.787 Y64.911 E3.33804
G1 X163.578 Y66.694 E3.45572
G1 X165.428 Y68.434 E3.57398
G1 X167.296 Y70.092 E3.69028
G1 X169.278 Y71.756 E3.81079
G1 X171.267 Y73.332 E3.92895
G1 X173.279 Y74.835 E4.04589
G1 X175.373 Y76.309 E4.16513
G1 X177.501 Y77.719 E4.284
G1 X179.63 Y79.043 E4.40074
G1 X181.849 Y80.338 E4.52038
G1 X184.058 Y81.545 E4.63759
G1 X186.314 Y82.697 E4.75554
G1 X188.636 Y83.799 E4.87522
G1 X190.954 Y84.821 E4.99318
G1 X193.331 Y85.792 E5.11275
G1 X195.656 Y86.661 E5.22832
G1 X198.081 Y87.492 E5.34769
G1 X200.476 Y88.24 E5.46452
G1 X202.096 Y88.686 E5.54276
G1 X203.696 Y89.146 E5.62028
G1 X204.585 Y89.431 E5.66375
G1 X205.097 Y89.61 E5.68901
G1 X205.623 Y89.811 E5.71523
G1 X206.486 Y90.172 E5.75879
G1 X206.983 Y90.395 E5.78415
G1 X207.498 Y90.643 E5.81077
G1 X208.058 Y90.933 E5.84013
G1 X208.334 Y91.082 E5.85474
G1 X208.786 Y91.334 E5.87884
G1 X209.294 Y91.637 E5.90638
G1 X210.084 Y92.144 E5.95009
G1 X210.508 Y92.431 E5.97393
G1 X210.985 Y92.775 E6.00131
G1 X211.747 Y93.363 E6.04613
G1 X212.134 Y93.678 E6.06937
G1 X212.57 Y94.054 E6.09617
G1 X213.05 Y94.492 E6.12643
G1 X213.289 Y94.718 E6.14175
G1 X213.626 Y95.046 E6.16365
G1 X214.025 Y95.456 E6.19029
G1 X214.52 Y95.995 E6.22436
G1 X214.746 Y96.25 E6.24023
G1 X215.019 Y96.568 E6.25974
G1 X215.379 Y97.012 E6.28636
G1 X215.81 Y97.575 E6.31938
G1 X216.013 Y97.849 E6.33525
G1 X216.265 Y98.202 E6.35545
G1 X216.585 Y98.678 E6.38216
G1 X216.975 Y99.295 E6.41615
G1 X217.143 Y99.571 E6.43119
G1 X217.359 Y99.938 E6.45102
G1 X217.649 Y100.464 E6.47899
G1 X217.951 Y101.054 E6.50985
G1 X218.086 Y101.329 E6.52412
G1 X218.282 Y101.742 E6.5454
G1 X218.525 Y102.295 E6.57353
G1 X218.796 Y102.966 E6.60723
G1 X218.91 Y103.262 E6.622
G1 X219.051 Y103.645 E6.641
G1 X219.247 Y104.232 E6.66982
G1 X219.539 Y105.22 E6.71779
G1 X219.643 Y105.609 E6.73654
G1 X219.782 Y106.196 E6.76463
G1 X219.935 Y106.943 E6.80013
G1 X219.994 Y107.257 E6.81501
G1 X220.059 Y107.634 E6.83282
G1 X220.146 Y108.253 E6.86193
G1 X220.225 Y108.972 E6.89561
G1 X220.255 Y109.295 E6.91072
G1 X220.288 Y109.719 E6.93052
G1 X220.317 Y110.324 E6.95872
G1 X220.331 Y111.352 E7.0066
G1 X220.326 Y111.749 E7.02508
G1 X220.301 Y112.349 E7.05305
G1 X220.249 Y113.076 E7.08699
G1 X220.219 Y113.417 E7.10292
G1 X220.178 Y113.806 E7.12114
G1 X220.098 Y114.395 E7.14882
G1 X219.918 Y115.464 E7.19929
G1 X219.85 Y115.811 E7.21576
G1 X219.705 Y116.443 E7.24595
G1 X219.431 Y117.468 E7.29536
G1 X219.311 Y117.875 E7.31512
G1 X219.115 Y118.471 E7.34433
G1 X218.779 Y119.385 E7.38967
G1 X218.629 Y119.765 E7.4087
G1 X218.384 Y120.334 E7.43754
G1 X218.075 Y120.996 E7.47156
G1 X217.935 Y121.283 E7.48643
G1 X217.748 Y121.653 E7.50574
G1 X217.449 Y122.203 E7.53489
G1 X216.93 Y123.082 E7.58242
G1 X216.706 Y123.442 E7.60216
G1 X216.359 Y123.964 E7.63135
G1 X215.804 Y124.737 E7.67566
G1 X215.521 Y125.112 E7.69753
G1 X215.133 Y125.595 E7.72638
G1 X214.491 Y126.339 E7.77214
G1 X214.167 Y126.696 E7.79459
G1 X213.748 Y127.132 E7.82275
G1 X213.237 Y127.632 E7.85604
G1 X212.993 Y127.862 E7.87165
G1 X212.659 Y128.168 E7.89274
G1 X212.238 Y128.533 E7.91869
G1 X211.483 Y129.146 E7.96397
G1 X211.09 Y129.448 E7.98705
G1 X210.634 Y129.779 E8.01329
G1 X209.82 Y130.33 E8.05906
G1 X209.411 Y130.592 E8.08168
G1 X208.892 Y130.903 E8.10985
G1 X208.052 Y131.369 E8.15458
G1 X207.619 Y131.596 E8.17735
G1 X207.075 Y131.861 E8.20552
G1 X206.228 Y132.238 E8.24869
G1 X205.733 Y132.445 E8.27368
G1 X205.168 Y132.662 E8.30186
G1 X204.297 Y132.963 E8.34477
G1 X203.551 Y133.196 E8.38116
G1 X202.919 Y133.377 E8.41177
G1 X201.244 Y133.832 E8.49259
G1 X198.842 Y134.558 E8.60944
G1 X196.375 Y135.38 E8.73052
G1 X194.05 Y136.229 E8.84578
G1 X191.631 Y137.191 E8.96699
G1 X189.337 Y138.179 E9.0833
G1 X187.038 Y139.248 E9.20136
G1 X184.751 Y140.389 E9.32037
G1 X182.514 Y141.587 E9.43853
G1 X180.296 Y142.857 E9.55754
G1 X178.149 Y144.169 E9.6747
G1 X176.027 Y145.547 E9.79252
G1 X173.912 Y147.009 E9.91224
G1 X171.886 Y148.495 E10.02923
G1 X169.87 Y150.063 E10.14816
G1 X167.917 Y151.674 E10.26604
G1 X165.997 Y153.351 E10.38475
G1 X164.126 Y155.081 E10.50341
G1 X162.332 Y156.835 E10.62023
G1 X160.549 Y158.681 E10.73974
G1 X158.846 Y160.546 E10.85734
G1 X157.167 Y162.493 E10.97706
G1 X155.576 Y164.445 E11.09432
G1 X154.029 Y166.462 E11.21268
G1 X152.55 Y168.505 E11.33012
G1 X151.111 Y170.616 E11.44908
G1 X149.745 Y172.745 E11.56687
G1 X148.424 Y174.94 E11.68616
G1 X147.185 Y177.138 E11.80365
G1 X146 Y179.384 E11.9219
G1 X144.873 Y181.677 E12.04087
G1 X143.821 Y183.979 E12.15872
G1 X142.834 Y186.309 E12.27655
G1 X141.907 Y188.685 E12.39531
G1 X141.07 Y191.02 E12.51081
G1 X139.862 Y194.803 E12.69572
G1 X139.759 Y195.108 E12.71071
G1 X139.497 Y195.847 E12.74722
G1 X139.362 Y196.206 E12.76508
G1 X139.211 Y196.586 E12.78412
G1 X138.98 Y197.122 E12.8113
G1 X138.672 Y197.784 E12.8453
G1 X138.527 Y198.082 E12.86073
G1 X138.34 Y198.452 E12.88003
G1 X138.041 Y199.002 E12.90919
G1 X137.522 Y199.881 E12.95672
G1 X137.298 Y200.241 E12.97646
G1 X136.951 Y200.763 E13.00565
G1 X136.396 Y201.537 E13.05
G1 X136.116 Y201.908 E13.07164
G1 X135.723 Y202.396 E13.10081
G1 X135.077 Y203.144 E13.14684
G1 X134.761 Y203.493 E13.16876
G1 X134.317 Y203.953 E13.19853
G1 X133.66 Y204.589 E13.24111
G1 X133.276 Y204.944 E13.26546
G1 X132.81 Y205.349 E13.29421
G1 X132.069 Y205.949 E13.3386
G1 X131.684 Y206.245 E13.36122
G1 X131.226 Y206.578 E13.38758
G1 X130.408 Y207.132 E13.43359
G1 X129.997 Y207.395 E13.45631
G1 X129.487 Y207.7 E13.48398
G1 X128.636 Y208.172 E13.52929
G1 X128.186 Y208.407 E13.55293
G1 X127.658 Y208.664 E13.58027
G1 X126.849 Y209.025 E13.62153
G1 X126.362 Y209.23 E13.64613
G1 X125.768 Y209.459 E13.67577
G1 X124.87 Y209.768 E13.71999
G1 X124.411 Y209.914 E13.74242
G1 X123.874 Y210.069 E13.76845
G1 X123.248 Y210.231 E13.79856
G1 X122.932 Y210.307 E13.81369
G1 X122.381 Y210.431 E13.83999
G1 X121.833 Y210.539 E13.866
G1 X120.962 Y210.681 E13.90709
G1 X120.393 Y210.76 E13.93384
G1 X119.786 Y210.826 E13.96227
G1 X118.899 Y210.892 E14.00369
G1 X118.314 Y210.922 E14.03096
G1 X117.733 Y210.935 E14.05802
G1 X116.944 Y210.927 E14.09476
G1 X116.352 Y210.908 E14.12234
G1 X115.751 Y210.871 E14.15038
G1 X114.792 Y210.779 E14.19524
G1 X114.277 Y210.717 E14.2194
G1 X113.702 Y210.631 E14.24647
G1 X112.807 Y210.467 E14.28884
G1 X112.248 Y210.35 E14.31543
G1 X111.687 Y210.216 E14.34229
G1 X110.839 Y209.983 E14.38324
G1 X110.304 Y209.823 E14.40924
G1 X109.731 Y209.633 E14.43735
G1 X108.877 Y209.317 E14.47975
G1 X108.369 Y209.115 E14.50521
G1 X107.834 Y208.885 E14.53232
G1 X106.99 Y208.487 E14.57577
G1 X106.539 Y208.261 E14.59926
G1 X106.022 Y207.983 E14.6266
G1 X105.192 Y207.5 E14.67131
G1 X104.768 Y207.239 E14.6945
G1 X104.282 Y206.921 E14.72154
G1 X103.734 Y206.539 E14.75265
G1 X103.482 Y206.357 E14.76712
G1 X103.104 Y206.076 E14.78905
G1 X102.646 Y205.715 E14.81621
G1 X102.103 Y205.261 E14.84916
G1 X101.868 Y205.058 E14.86362
G1 X101.507 Y204.737 E14.88612
G1 X101.073 Y204.327 E14.91392
G1 X100.437 Y203.686 E14.95597
G1 X100.094 Y203.323 E14.97922
G1 X99.682 Y202.86 E15.00808
G1 X99.059 Y202.108 E15.05355
G1 X98.78 Y201.754 E15.07454
G1 X98.414 Y201.259 E15.10321
G1 X97.824 Y200.404 E15.15158
G1 X97.601 Y200.063 E15.17055
G1 X97.274 Y199.526 E15.19983
G1 X96.788 Y198.665 E15.24586
G1 X96.591 Y198.294 E15.26542
G1 X96.324 Y197.751 E15.2936
G1 X95.883 Y196.775 E15.34347
G1 X95.74 Y196.435 E15.36064
G1 X95.514 Y195.848 E15.38993
G1 X95.161 Y194.825 E15.44032
G1 X94.635 Y193.161 E15.52159
G1 X93.797 Y190.634 E15.64556
G1 X92.941 Y188.282 E15.7621
G1 X92.002 Y185.91 E15.88089
G1 X91.003 Y183.581 E15.9989
G1 X89.924 Y181.25 E16.1185
G1 X88.815 Y179.023 E16.23435
G1 X87.597 Y176.739 E16.35488
G1 X86.344 Y174.542 E16.47265
G1 X85.035 Y172.393 E16.58981
G1 X83.636 Y170.233 E16.70965
G1 X82.205 Y168.158 E16.82702
G1 X80.712 Y166.115 E16.94484
G1 X79.151 Y164.103 E17.06342
G1 X77.53 Y162.13 E17.18232
G1 X75.871 Y160.227 E17.29988
G1 X74.128 Y158.335 E17.41966
G1 X72.393 Y156.555 E17.53541
G1 X70.551 Y154.771 E17.65481
G1 X68.68 Y153.058 E17.77293
G1 X66.756 Y151.395 E17.89135
G1 X64.79 Y149.788 E18.00959
G1 X62.771 Y148.234 E18.12822
G1 X60.712 Y146.739 E18.24671
G1 X58.617 Y145.306 E18.3649
G1 X56.485 Y143.934 E18.48295
G1 X54.32 Y142.627 E18.60071
G1 X52.107 Y141.376 E18.71908
G1 X49.859 Y140.186 E18.83752
G1 X47.57 Y139.056 E18.95638
G1 X45.26 Y137.996 E19.07473
G1 X42.953 Y137.016 E19.19144
G1 X40.561 Y136.078 E19.31108
G1 X38.195 Y135.227 E19.42816
G1 X35.794 Y134.439 E19.54583
G1 X32.199 Y133.394 E19.72016
G1 X31.399 Y133.175 E19.75878
G1 X30.867 Y133.015 E19.78465
G1 X30.323 Y132.834 E19.81135
G1 X29.495 Y132.529 E19.85243
G1 X28.991 Y132.329 E19.87768
G1 X28.444 Y132.093 E19.90542
G1 X27.594 Y131.693 E19.94916
G1 X27.129 Y131.461 E19.97336
G1 X26.583 Y131.167 E20.00224
G1 X25.785 Y130.702 E20.04524
G1 X25.358 Y130.439 E20.0686
G1 X24.874 Y130.122 E20.09554
G1 X24.326 Y129.74 E20.12664
G1 X24.074 Y129.558 E20.14112
G1 X23.696 Y129.277 E20.16305
G1 X23.238 Y128.916 E20.1902
G1 X22.695 Y128.462 E20.22316
G1 X22.46 Y128.259 E20.23762
G1 X22.099 Y127.938 E20.26011
G1 X21.665 Y127.528 E20.28792
G1 X21.029 Y126.887 E20.32996
G1 X20.686 Y126.524 E20.35322
G1 X20.274 Y126.061 E20.38208
G1 X19.651 Y125.309 E20.42755
G1 X19.372 Y124.955 E20.44854
G1 X19.006 Y124.46 E20.4772
G1 X18.416 Y123.605 E20.52557
G1 X18.193 Y123.264 E20.54454
G1 X17.866 Y122.727 E20.57382
G1 X17.38 Y121.866 E20.61986
G1 X17.183 Y121.495 E20.63942
G1 X16.916 Y120.952 E20.66759
G1 X16.475 Y119.976 E20.71746
G1 X16.332 Y119.636 E20.73464
G1 X16.106 Y119.05 E20.76389
G1 X15.756 Y118.035 E20.81388
G1 X15.642 Y117.675 E20.83146
G1 X15.473 Y117.079 E20.86031
G1 X15.224 Y116.073 E20.90857
G1 X15.143 Y115.708 E20.92598
G1 X15.021 Y115.056 E20.95686
G1 X14.862 Y113.996 E21.00677
G1 X14.816 Y113.621 E21.02436
G1 X14.761 Y113.035 E21.05177
G1 X14.713 Y112.29 E21.08653
G1 X14.698 Y111.977 E21.10113
G1 X14.684 Y111.561 E21.12051
G1 X14.682 Y110.948 E21.14905
G1 X14.712 Y109.968 E21.1947
G1 X14.734 Y109.574 E21.21308
G1 X14.788 Y108.951 E21.2422
G1 X14.885 Y108.127 E21.28083
G1 X14.934 Y107.768 E21.2977
G1 X14.984 Y107.443 E21.31301
G1 X15.088 Y106.874 E21.33995
G1 X15.241 Y106.154 E21.37422
G1 X15.321 Y105.806 E21.39085
G1 X15.413 Y105.437 E21.40856
G1 X15.564 Y104.895 E21.43476
G1 X15.902 Y103.817 E21.48736
G1 X16.006 Y103.514 E21.50228
G1 X16.23 Y102.922 E21.53175
G1 X16.529 Y102.2 E21.56814
G1 X16.662 Y101.894 E21.58368
G1 X16.821 Y101.543 E21.60162
G1 X17.075 Y101.022 E21.62861
G1 X17.41 Y100.382 E21.66225
G1 X17.575 Y100.079 E21.67831
G1 X17.79 Y99.7 E21.6986
G1 X18.081 Y99.219 E21.72478
G1 X18.455 Y98.637 E21.75699
G1 X18.638 Y98.362 E21.77237
G1 X18.882 Y98.008 E21.79239
G1 X19.238 Y97.522 E21.82045
G1 X19.689 Y96.944 E21.85458
G1 X19.893 Y96.691 E21.86972
G1 X20.172 Y96.356 E21.89002
G1 X20.552 Y95.926 E21.91674
G1 X21.039 Y95.404 E21.94998
G1 X21.273 Y95.161 E21.96569
G1 X21.587 Y94.846 E21.9864
G1 X21.999 Y94.455 E22.01285
G1 X22.476 Y94.027 E22.04269
G1 X22.72 Y93.815 E22.05774
G1 X23.105 Y93.491 E22.08117
G1 X23.555 Y93.133 E22.10795
G1 X24.357 Y92.538 E22.15445
G1 X24.776 Y92.244 E22.17828
G1 X25.275 Y91.916 E22.20609
G1 X26.058 Y91.438 E22.2488
G1 X26.536 Y91.162 E22.27451
G1 X27.027 Y90.896 E22.30051
G1 X27.853 Y90.483 E22.34351
G1 X28.345 Y90.253 E22.3688
G1 X28.871 Y90.025 E22.39549
G1 X29.752 Y89.677 E22.4396
G1 X30.242 Y89.497 E22.46391
G1 X30.794 Y89.311 E22.49103
G1 X31.651 Y89.055 E22.53268
G1 X32.597 Y88.797 E22.57834
G1 X35.067 Y88.086 E22.69802
G1 X37.472 Y87.32 E22.81555
G1 X39.89 Y86.471 E22.93488
G1 X42.223 Y85.579 E23.05119
G1 X44.586 Y84.599 E23.17031
G1 X46.899 Y83.561 E23.28836
G1 X49.221 Y82.439 E23.40844
G1 X51.462 Y81.277 E23.52598
G1 X53.645 Y80.066 E23.64223
G1 X55.878 Y78.743 E23.76308
G1 X58.018 Y77.392 E23.88093
G1 X60.103 Y75.991 E23.99789
G1 X62.191 Y74.501 E24.11734
G1 X64.195 Y72.984 E24.23437
G1 X66.21 Y71.368 E24.35465
G1 X68.107 Y69.755 E24.47059
G1 X70.001 Y68.05 E24.58926
G1 X71.854 Y66.284 E24.70845
G1 X73.636 Y64.488 E24.82626
G1 X75.386 Y62.622 E24.94538
G1 X77.058 Y60.732 E25.06288
G1 X78.686 Y58.786 E25.18102
G1 X80.264 Y56.786 E25.29965
G1 X81.79 Y54.738 E25.41858
G1 X83.221 Y52.696 E25.53468
G1 X84.658 Y50.52 E25.65611
G1 X85.975 Y48.395 E25.77252
G1 X87.254 Y46.194 E25.89105
G1 X88.47 Y43.96 E26.00949
G1 X89.611 Y41.714 E26.12679
G1 X90.706 Y39.401 E26.24596
G1 X91.72 Y37.088 E26.36356
G1 X92.686 Y34.709 E26.48312
G1 X93.55 Y32.395 E26.59813
G1 X94.79 Y28.676 E26.78068
G1 X95.307 Y27.029 E26.86106
G1 X95.414 Y26.717 E26.87641
G1 X95.638 Y26.123 E26.90598
G1 X95.937 Y25.401 E26.94236
G1 X96.07 Y25.095 E26.9579
G1 X96.229 Y24.744 E26.97584
G1 X96.483 Y24.223 E27.00283
G1 X96.818 Y23.583 E27.03647
G1 X96.983 Y23.28 E27.05253
G1 X97.198 Y22.901 E27.07282
G1 X97.489 Y22.42 E27.099
G1 X97.863 Y21.838 E27.13121
G1 X98.046 Y21.563 E27.1466
G1 X98.29 Y21.209 E27.16662
G1 X98.646 Y20.723 E27.19467
G1 X99.097 Y20.145 E27.22881
G1 X99.301 Y19.892 E27.24394
G1 X99.58 Y19.557 E27.26424
G1 X99.96 Y19.127 E27.29096
G1 X100.447 Y18.605 E27.3242
G1 X100.681 Y18.362 E27.33991
G1 X100.995 Y18.047 E27.36062
G1 X101.407 Y17.656 E27.38707
G1 X101.884 Y17.228 E27.41691
G1 X102.128 Y17.016 E27.43196
G1 X102.513 Y16.692 E27.45539
G1 X102.963 Y16.334 E27.48217
G1 X103.765 Y15.739 E27.52867
G1 X104.184 Y15.445 E27.5525
G1 X104.683 Y15.117 E27.58031
G1 X105.451 Y14.647 E27.62223
