;FLAVOR:Marlin
;TIME:2435
;Filament used: 2.43497m
;Layer height: 0.2
;MINX:92.243
;MINY:92.247
;MINZ:0.2
;MAXX:142.757
;MAXY:142.756
;MAXZ:9.4
;Generated with Cura_SteamEngine 4.6.1
M140 S110
M105
M190 S110
M104 S230
M105
M109 S230
M82 ;absolute extrusion mode
; Ender 3 Custom Start G-code
G92 E0 ; Reset Extruder
G28 ; Home all axes
G1 Z2.0 F3000 ; Move Z Axis up little to prevent scratching of Heat Bed
G1 X0.1 Y20 Z0.3 F5000.0 ; Move to start position
G1 X0.1 Y200.0 Z0.3 F1500.0 E15 ; Draw the first line
G1 X0.4 Y200.0 Z0.3 F5000.0 ; Move to side a little
G1 X0.4 Y20 Z0.3 F1500.0 E30 ; Draw the second line
G92 E0 ; Reset Extruder
G1 Z2.0 F3000 ; Move Z Axis up little to prevent scratching of Heat Bed
G1 X5 Y20 Z0.3 F5000.0 ; Move over to prevent blob squish
G92 E0
G92 E0
G1 F1500 E-6.5
;LAYER_COUNT:47
;LAYER:0
M107
G0 F6000 X118.876 Y93.083 Z0.2
;TYPE:SKIRT
G1 F1500 E0
G1 F1200 X119.401 Y93.118 E0.0175
G1 X119.773 Y93.149 E0.02992
G1 X120.518 Y93.231 E0.05484
G1 X121.042 Y93.302 E0.07243
G1 X121.398 Y93.357 E0.08441
G1 X121.934 Y93.449 E0.1025
G1 X122.287 Y93.516 E0.11445
G1 X122.652 Y93.592 E0.12685
G1 X122.966 Y93.663 E0.13756
G1 X123.484 Y93.788 E0.15528
G1 X123.835 Y93.879 E0.16734
G1 X124.279 Y94.003 E0.18268
G1 X124.601 Y94.099 E0.19385
G1 X125.15 Y94.272 E0.213
G1 X125.497 Y94.388 E0.22517
G1 X125.88 Y94.524 E0.23868
G1 X126.183 Y94.637 E0.24944
G1 X126.615 Y94.806 E0.26487
G1 X126.943 Y94.941 E0.27666
G1 X127.471 Y95.169 E0.29579
G1 X127.778 Y95.308 E0.307
G1 X128.113 Y95.466 E0.31932
G1 X128.415 Y95.614 E0.33051
G1 X128.889 Y95.857 E0.34822
G1 X129.216 Y96.032 E0.36056
G1 X129.67 Y96.286 E0.37786
G1 X129.981 Y96.468 E0.38985
G1 X130.595 Y96.845 E0.41381
G1 X131.067 Y97.151 E0.43252
G1 X131.398 Y97.376 E0.44583
G1 X131.984 Y97.794 E0.46977
G1 X132.401 Y98.107 E0.48711
G1 X132.669 Y98.316 E0.49842
G1 X133.016 Y98.595 E0.51323
G1 X133.315 Y98.844 E0.52617
G1 X133.742 Y99.215 E0.54498
G1 X133.968 Y99.418 E0.55509
G1 X134.252 Y99.68 E0.56794
G1 X134.517 Y99.933 E0.58012
G1 X134.866 Y100.279 E0.59647
G1 X135.099 Y100.518 E0.60757
G1 X135.476 Y100.917 E0.62583
G1 X135.729 Y101.195 E0.63833
G1 X136.001 Y101.505 E0.65205
G1 X136.221 Y101.764 E0.66335
G1 X136.595 Y102.22 E0.68297
G1 X136.804 Y102.484 E0.69417
G1 X137.027 Y102.775 E0.70636
G1 X137.234 Y103.054 E0.71791
G1 X137.553 Y103.501 E0.73618
G1 X137.743 Y103.778 E0.74735
G1 X138.015 Y104.187 E0.76369
G1 X138.214 Y104.498 E0.77597
G1 X138.623 Y105.173 E0.80222
G1 X138.843 Y105.558 E0.81697
G1 X139.019 Y105.879 E0.82914
G1 X139.273 Y106.363 E0.84732
G1 X139.426 Y106.667 E0.85864
G1 X139.639 Y107.108 E0.87493
G1 X139.79 Y107.435 E0.88691
G1 X139.974 Y107.853 E0.9021
G1 X140.097 Y108.145 E0.91264
G1 X140.258 Y108.544 E0.92695
G1 X140.379 Y108.86 E0.9382
G1 X140.565 Y109.369 E0.95623
G1 X140.685 Y109.714 E0.96838
G1 X140.821 Y110.132 E0.983
G1 X140.921 Y110.461 E0.99443
G1 X141.071 Y110.981 E1.01244
G1 X141.165 Y111.329 E1.02442
G1 X141.278 Y111.78 E1.03989
G1 X141.349 Y112.084 E1.05027
G1 X141.452 Y112.556 E1.06634
G1 X141.53 Y112.947 E1.0796
G1 X141.665 Y113.735 E1.10619
G1 X141.726 Y114.151 E1.12018
G1 X141.771 Y114.497 E1.13178
G1 X141.838 Y115.096 E1.15183
G1 X141.872 Y115.463 E1.16409
G1 X141.898 Y115.808 E1.17559
G1 X141.918 Y116.147 E1.18689
G1 X141.945 Y116.79 E1.20829
G1 X141.954 Y117.129 E1.21957
G1 X141.957 Y117.471 E1.23095
G1 X141.954 Y117.816 E1.24242
G1 X141.939 Y118.414 E1.26232
G1 X141.924 Y118.767 E1.27407
G1 X141.9 Y119.168 E1.28743
G1 X141.873 Y119.513 E1.29894
G1 X141.828 Y119.992 E1.31494
G1 X141.791 Y120.325 E1.32609
G1 X141.727 Y120.828 E1.34295
G1 X141.674 Y121.196 E1.35532
G1 X141.517 Y122.12 E1.38649
G1 X141.453 Y122.444 E1.39748
G1 X141.378 Y122.788 E1.40919
G1 X141.278 Y123.216 E1.4238
G1 X141.2 Y123.527 E1.43447
G1 X141.044 Y124.111 E1.45457
G1 X140.941 Y124.471 E1.46703
G1 X140.806 Y124.911 E1.48234
G1 X140.706 Y125.219 E1.49311
G1 X140.573 Y125.608 E1.50678
G1 X140.446 Y125.959 E1.51919
G1 X140.234 Y126.512 E1.53889
G1 X140.107 Y126.827 E1.55019
G1 X139.794 Y127.557 E1.57661
G1 X139.663 Y127.842 E1.58704
G1 X139.505 Y128.171 E1.59918
G1 X139.166 Y128.844 E1.62424
G1 X138.985 Y129.186 E1.63711
G1 X138.816 Y129.492 E1.64874
G1 X138.494 Y130.044 E1.66999
G1 X138.318 Y130.332 E1.68122
G1 X137.905 Y130.98 E1.70678
G1 X137.688 Y131.306 E1.7198
G1 X137.354 Y131.781 E1.73912
G1 X136.998 Y132.264 E1.75907
G1 X136.779 Y132.55 E1.77105
G1 X136.595 Y132.782 E1.7809
G1 X136.369 Y133.057 E1.79274
G1 X135.87 Y133.643 E1.81834
G1 X135.636 Y133.908 E1.8301
G1 X135.415 Y134.15 E1.841
G1 X135.186 Y134.393 E1.8521
G1 X134.872 Y134.715 E1.86706
G1 X134.635 Y134.95 E1.87816
G1 X134.28 Y135.291 E1.89454
G1 X134.013 Y135.538 E1.90663
G1 X133.559 Y135.944 E1.92689
G1 X133.306 Y136.163 E1.93802
G1 X132.812 Y136.57 E1.95931
G1 X132.371 Y136.915 E1.97793
G1 X132.057 Y137.15 E1.99098
G1 X131.308 Y137.685 E2.02159
G1 X131.002 Y137.892 E2.03388
G1 X130.716 Y138.079 E2.04524
G1 X130.409 Y138.272 E2.0573
G1 X130.123 Y138.445 E2.06842
G1 X129.527 Y138.793 E2.09138
G1 X129.19 Y138.982 E2.10423
G1 X128.853 Y139.162 E2.11694
G1 X128.551 Y139.317 E2.12823
G1 X128.039 Y139.569 E2.14721
G1 X127.738 Y139.711 E2.15828
G1 X127.129 Y139.981 E2.18043
G1 X126.613 Y140.195 E2.19901
G1 X126.261 Y140.333 E2.21159
G1 X125.761 Y140.519 E2.22933
G1 X125.438 Y140.633 E2.24072
G1 X125.064 Y140.758 E2.25384
G1 X124.727 Y140.864 E2.26559
G1 X123.873 Y141.112 E2.29517
G1 X123.433 Y141.227 E2.31029
G1 X123.092 Y141.31 E2.32197
G1 X122.625 Y141.415 E2.33789
G1 X122.279 Y141.486 E2.34963
G1 X121.818 Y141.573 E2.36524
G1 X121.477 Y141.631 E2.37674
G1 X120.996 Y141.705 E2.39293
G1 X120.645 Y141.753 E2.40471
G1 X119.826 Y141.845 E2.43212
G1 X119.375 Y141.884 E2.44718
G1 X119.009 Y141.909 E2.45938
G1 X118.453 Y141.937 E2.4779
G1 X118.102 Y141.949 E2.48958
G1 X117.662 Y141.956 E2.50421
G1 X117.338 Y141.956 E2.51499
G1 X116.898 Y141.949 E2.52963
G1 X116.546 Y141.937 E2.54134
G1 X115.991 Y141.909 E2.55982
G1 X115.628 Y141.884 E2.57193
G1 X115.176 Y141.845 E2.58701
G1 X114.853 Y141.812 E2.59781
G1 X114.355 Y141.753 E2.61449
G1 X114.004 Y141.705 E2.62628
G1 X113.523 Y141.631 E2.64246
G1 X113.161 Y141.569 E2.65468
G1 X112.396 Y141.418 E2.68061
G1 X111.929 Y141.314 E2.69653
G1 X111.551 Y141.222 E2.70947
G1 X110.821 Y141.026 E2.7346
G1 X110.285 Y140.868 E2.75319
G1 X109.92 Y140.753 E2.76592
G1 X109.253 Y140.524 E2.78937
G1 X108.751 Y140.338 E2.80718
G1 X108.4 Y140.2 E2.81972
G1 X107.882 Y139.986 E2.83837
G1 X107.552 Y139.843 E2.85033
G1 X106.961 Y139.569 E2.87199
G1 X106.449 Y139.317 E2.89097
G1 X106.134 Y139.155 E2.90276
G1 X105.774 Y138.962 E2.91634
G1 X105.469 Y138.792 E2.92796
G1 X104.975 Y138.505 E2.94696
G1 X104.672 Y138.321 E2.95875
G1 X104.271 Y138.069 E2.9745
G1 X103.988 Y137.885 E2.98573
G1 X103.615 Y137.633 E3.0007
G1 X103.331 Y137.434 E3.01223
G1 X102.962 Y137.166 E3.0274
G1 X102.682 Y136.955 E3.03906
G1 X102.2 Y136.579 E3.05939
G1 X101.924 Y136.356 E3.0712
G1 X101.69 Y136.16 E3.08135
G1 X101.442 Y135.945 E3.09227
G1 X100.989 Y135.54 E3.11248
G1 X100.721 Y135.292 E3.12462
G1 X100.365 Y134.95 E3.14104
G1 X100.128 Y134.715 E3.15214
G1 X99.815 Y134.394 E3.16705
G1 X99.587 Y134.153 E3.17809
G1 X99.365 Y133.91 E3.18903
G1 X99.129 Y133.642 E3.20091
G1 X98.631 Y133.057 E3.22646
G1 X98.225 Y132.555 E3.24794
G1 X98.008 Y132.272 E3.2598
G1 X97.652 Y131.79 E3.27973
G1 X97.3 Y131.289 E3.30009
G1 X97.105 Y130.996 E3.3118
G1 X96.691 Y130.349 E3.33735
G1 X96.483 Y130.009 E3.3506
G1 X96.191 Y129.505 E3.36998
G1 X96.022 Y129.2 E3.38158
G1 X95.832 Y128.839 E3.39514
G1 X95.493 Y128.165 E3.42024
G1 X95.338 Y127.844 E3.43209
G1 X95.206 Y127.557 E3.4426
G1 X95.074 Y127.258 E3.45347
G1 X94.891 Y126.824 E3.46914
G1 X94.768 Y126.518 E3.48011
G1 X94.556 Y125.966 E3.49977
G1 X94.424 Y125.601 E3.51268
G1 X94.291 Y125.211 E3.52639
G1 X94.192 Y124.905 E3.53708
G1 X94.038 Y124.402 E3.55458
G1 X93.94 Y124.062 E3.56635
G1 X93.828 Y123.645 E3.58071
G1 X93.747 Y123.323 E3.59175
G1 X93.626 Y122.806 E3.60941
G1 X93.553 Y122.464 E3.62104
G1 X93.468 Y122.035 E3.63559
G1 X93.403 Y121.678 E3.64766
G1 X93.327 Y121.207 E3.66353
G1 X93.28 Y120.884 E3.67438
G1 X93.21 Y120.34 E3.69263
G1 X93.172 Y119.992 E3.70427
G1 X93.127 Y119.513 E3.72027
G1 X93.1 Y119.168 E3.73178
G1 X93.076 Y118.767 E3.74514
G1 X93.061 Y118.415 E3.75686
G1 X93.046 Y117.819 E3.77669
G1 X93.043 Y117.473 E3.7882
G1 X93.046 Y117.129 E3.79964
G1 X93.055 Y116.789 E3.81095
G1 X93.082 Y116.147 E3.83233
G1 X93.102 Y115.812 E3.84349
G1 X93.128 Y115.466 E3.85503
G1 X93.163 Y115.092 E3.86752
G1 X93.23 Y114.495 E3.8875
G1 X93.273 Y114.16 E3.89874
G1 X93.334 Y113.742 E3.91279
G1 X93.388 Y113.41 E3.92397
G1 X93.475 Y112.926 E3.94033
G1 X93.544 Y112.576 E3.95219
G1 X93.646 Y112.104 E3.96826
G1 X93.724 Y111.77 E3.97966
G1 X93.837 Y111.321 E3.99506
G1 X93.926 Y110.993 E4.00637
G1 X94.076 Y110.471 E4.02443
G1 X94.184 Y110.118 E4.03671
G1 X94.32 Y109.702 E4.05127
G1 X94.43 Y109.383 E4.06249
G1 X94.616 Y108.872 E4.08058
G1 X94.737 Y108.556 E4.09183
G1 X94.897 Y108.158 E4.1061
G1 X95.03 Y107.843 E4.11747
G1 X95.215 Y107.424 E4.1327
G1 X95.361 Y107.108 E4.14428
G1 X95.574 Y106.667 E4.16057
G1 X95.727 Y106.363 E4.17189
G1 X95.981 Y105.879 E4.19007
G1 X96.152 Y105.566 E4.20193
G1 X96.359 Y105.203 E4.21583
G1 X96.538 Y104.903 E4.22745
G1 X96.821 Y104.444 E4.24539
G1 X97.002 Y104.16 E4.25659
G1 X97.246 Y103.792 E4.27127
G1 X97.446 Y103.502 E4.28299
G1 X97.758 Y103.065 E4.30085
G1 X97.957 Y102.795 E4.312
G1 X98.188 Y102.493 E4.32465
G1 X98.406 Y102.218 E4.33632
G1 X98.782 Y101.76 E4.35603
G1 X99.021 Y101.48 E4.36827
G1 X99.507 Y100.937 E4.39251
G1 X99.884 Y100.536 E4.41082
G1 X100.155 Y100.259 E4.42371
G1 X100.719 Y99.708 E4.44993
G1 X101.003 Y99.444 E4.46283
G1 X101.279 Y99.197 E4.47515
G1 X101.706 Y98.828 E4.49392
G1 X101.956 Y98.619 E4.50476
G1 X102.303 Y98.338 E4.51961
G1 X102.599 Y98.107 E4.5321
G1 X103.016 Y97.794 E4.54944
G1 X103.259 Y97.618 E4.55942
G1 X103.602 Y97.376 E4.57338
G1 X103.917 Y97.162 E4.58604
G1 X104.387 Y96.856 E4.6047
G1 X104.683 Y96.671 E4.61631
G1 X105.041 Y96.455 E4.63021
G1 X105.336 Y96.283 E4.64157
G1 X105.789 Y96.03 E4.65883
G1 X106.102 Y95.862 E4.67064
G1 X106.577 Y95.618 E4.68841
G1 X106.876 Y95.471 E4.69949
G1 X107.21 Y95.313 E4.71178
G1 X107.535 Y95.166 E4.72364
G1 X108.366 Y94.813 E4.75367
G1 X108.798 Y94.643 E4.76911
G1 X109.142 Y94.515 E4.78132
G1 X109.525 Y94.38 E4.79483
G1 X109.85 Y94.272 E4.80622
G1 X110.399 Y94.099 E4.82536
G1 X110.735 Y93.999 E4.83702
G1 X111.185 Y93.874 E4.85255
G1 X111.489 Y93.795 E4.863
G1 X111.979 Y93.675 E4.87978
G1 X112.353 Y93.591 E4.89253
G1 X112.762 Y93.507 E4.90642
G1 X113.105 Y93.442 E4.91803
G1 X113.617 Y93.355 E4.9353
G1 X113.943 Y93.305 E4.94627
G1 X114.469 Y93.233 E4.96393
G1 X114.802 Y93.193 E4.97508
G1 X115.227 Y93.149 E4.9893
G1 X115.599 Y93.118 E5.00171
G1 X116.431 Y93.067 E5.02944
G1 X116.788 Y93.054 E5.04132
G1 X117.159 Y93.047 E5.05366
G1 X117.841 Y93.047 E5.07634
G1 X118.212 Y93.054 E5.08868
G1 X118.876 Y93.083 E5.11079
G0 F6000 X118.903 Y92.683
G1 F1200 X119.428 Y92.718 E5.12829
G1 X119.815 Y92.751 E5.14121
G1 X120.24 Y92.795 E5.15542
G1 X120.571 Y92.835 E5.16651
G1 X121.095 Y92.906 E5.1841
G1 X121.465 Y92.963 E5.19655
G1 X122.001 Y93.055 E5.21464
G1 X122.369 Y93.125 E5.2271
G1 X122.734 Y93.201 E5.2395
G1 X123.06 Y93.274 E5.25061
G1 X123.578 Y93.399 E5.26833
G1 X123.942 Y93.494 E5.28084
G1 X124.386 Y93.618 E5.29617
G1 X124.721 Y93.717 E5.30779
G1 X125.27 Y93.89 E5.32694
G1 X125.631 Y94.011 E5.3396
G1 X126.329 Y94.264 E5.3643
G1 X126.761 Y94.433 E5.37972
G1 X127.101 Y94.574 E5.39197
G1 X127.629 Y94.802 E5.4111
G1 X127.949 Y94.946 E5.42277
G1 X128.284 Y95.104 E5.43509
G1 X128.598 Y95.258 E5.44672
G1 X129.072 Y95.501 E5.46443
G1 X129.411 Y95.683 E5.47723
G1 X129.865 Y95.937 E5.49453
G1 X130.189 Y96.126 E5.50701
G1 X130.545 Y96.342 E5.52086
G1 X130.812 Y96.51 E5.53135
G1 X131.284 Y96.816 E5.55006
G1 X131.629 Y97.049 E5.56391
G1 X132.224 Y97.474 E5.58823
G1 X132.641 Y97.787 E5.60557
G1 X132.92 Y98.004 E5.61732
G1 X133.267 Y98.283 E5.63213
G1 X133.577 Y98.542 E5.64557
G1 X134.004 Y98.913 E5.66438
G1 X134.239 Y99.124 E5.67489
G1 X134.523 Y99.386 E5.68774
G1 X134.799 Y99.649 E5.70042
G1 X135.148 Y99.995 E5.71677
G1 X135.39 Y100.243 E5.72829
G1 X135.767 Y100.642 E5.74655
G1 X136.03 Y100.931 E5.75954
G1 X136.302 Y101.241 E5.77326
G1 X136.53 Y101.51 E5.78499
G1 X136.904 Y101.966 E5.8046
G1 X137.122 Y102.24 E5.81625
G1 X137.345 Y102.531 E5.82844
G1 X137.559 Y102.822 E5.84046
G1 X137.878 Y103.269 E5.85872
G1 X138.076 Y103.556 E5.87032
G1 X138.348 Y103.965 E5.88666
G1 X138.555 Y104.288 E5.89942
G1 X138.8 Y104.687 E5.91499
G1 X138.97 Y104.975 E5.92611
G1 X139.19 Y105.36 E5.94086
G1 X139.373 Y105.693 E5.9535
G1 X139.627 Y106.177 E5.97168
G1 X139.786 Y106.493 E5.98345
G1 X139.999 Y106.934 E5.99973
G1 X140.156 Y107.273 E6.01216
G1 X140.34 Y107.691 E6.02735
G1 X140.468 Y107.996 E6.03835
G1 X140.629 Y108.395 E6.05266
G1 X140.755 Y108.723 E6.06435
G1 X140.941 Y109.232 E6.08237
G1 X141.065 Y109.59 E6.09497
G1 X141.201 Y110.008 E6.10959
G1 X141.306 Y110.35 E6.12149
G1 X141.456 Y110.87 E6.13949
G1 X141.553 Y111.232 E6.15196
G1 X141.666 Y111.683 E6.16742
G1 X141.74 Y111.999 E6.17822
G1 X141.843 Y112.471 E6.19429
G1 X141.924 Y112.877 E6.20806
G1 X142.01 Y113.361 E6.22441
G1 X142.061 Y113.677 E6.23505
G1 X142.122 Y114.093 E6.24904
G1 X142.168 Y114.453 E6.26111
G1 X142.235 Y115.052 E6.28115
G1 X142.271 Y115.433 E6.29388
G1 X142.297 Y115.778 E6.30539
G1 X142.318 Y116.13 E6.31712
G1 X142.345 Y116.773 E6.33852
G1 X142.354 Y117.125 E6.35023
G1 X142.357 Y117.467 E6.36161
G1 X142.354 Y117.826 E6.37355
G1 X142.339 Y118.424 E6.39345
G1 X142.323 Y118.791 E6.40566
G1 X142.299 Y119.192 E6.41903
G1 X142.272 Y119.55 E6.43097
G1 X142.227 Y120.029 E6.44697
G1 X142.188 Y120.376 E6.45858
G1 X142.124 Y120.879 E6.47545
G1 X142.069 Y121.261 E6.48828
G1 X141.97 Y121.863 E6.50857
G1 X141.845 Y122.521 E6.53085
G1 X141.768 Y122.879 E6.54303
G1 X141.668 Y123.307 E6.55765
G1 X141.587 Y123.631 E6.56876
G1 X141.431 Y124.215 E6.58886
G1 X141.324 Y124.588 E6.60177
G1 X141.189 Y125.028 E6.61708
G1 X141.085 Y125.348 E6.62827
G1 X140.952 Y125.737 E6.64194
G1 X140.82 Y126.102 E6.65485
G1 X140.608 Y126.655 E6.67455
G1 X140.476 Y126.982 E6.68628
G1 X140.292 Y127.418 E6.70202
G1 X140.026 Y128.009 E6.72357
G1 X139.862 Y128.351 E6.73619
G1 X139.523 Y129.024 E6.76125
G1 X139.335 Y129.38 E6.77464
G1 X139.01 Y129.959 E6.79673
G1 X138.839 Y130.248 E6.8079
G1 X138.655 Y130.547 E6.81957
G1 X138.242 Y131.195 E6.84513
G1 X138.017 Y131.534 E6.85866
G1 X137.676 Y132.018 E6.87835
G1 X137.32 Y132.501 E6.89831
G1 X137.092 Y132.799 E6.91079
G1 X136.908 Y133.031 E6.92064
G1 X136.673 Y133.316 E6.93293
G1 X136.174 Y133.902 E6.95853
G1 X135.931 Y134.178 E6.97076
G1 X135.71 Y134.42 E6.98166
G1 X135.472 Y134.672 E6.99319
G1 X135.158 Y134.994 E7.00814
G1 X134.912 Y135.239 E7.01969
G1 X134.557 Y135.58 E7.03606
G1 X134.28 Y135.836 E7.04861
G1 X133.826 Y136.242 E7.06887
G1 X133.563 Y136.47 E7.08044
G1 X133.33 Y136.665 E7.09055
G1 X133.058 Y136.885 E7.10218
G1 X132.617 Y137.23 E7.12081
G1 X132.292 Y137.475 E7.13434
G1 X131.799 Y137.831 E7.15457
G1 X131.532 Y138.017 E7.16539
G1 X131.226 Y138.224 E7.17768
G1 X130.929 Y138.418 E7.18948
G1 X130.622 Y138.611 E7.20154
G1 X130.325 Y138.791 E7.21309
G1 X129.729 Y139.139 E7.23605
G1 X129.378 Y139.335 E7.24942
G1 X129.041 Y139.515 E7.26212
G1 X128.728 Y139.675 E7.27382
G1 X128.216 Y139.927 E7.2928
G1 X127.903 Y140.075 E7.30431
G1 X127.589 Y140.217 E7.31577
G1 X127.282 Y140.35 E7.3269
G1 X126.766 Y140.564 E7.34548
G1 X126.401 Y140.708 E7.35853
G1 X125.901 Y140.894 E7.37627
G1 X125.565 Y141.012 E7.38812
G1 X125.191 Y141.137 E7.40123
G1 X124.84 Y141.248 E7.41348
G1 X124.303 Y141.407 E7.43211
G1 X123.974 Y141.499 E7.44347
G1 X123.534 Y141.614 E7.45859
G1 X123.179 Y141.7 E7.47074
G1 X122.712 Y141.805 E7.48666
G1 X122.353 Y141.879 E7.49886
G1 X121.892 Y141.966 E7.51446
G1 X121.538 Y142.027 E7.52641
G1 X121.057 Y142.101 E7.54259
G1 X120.692 Y142.15 E7.55484
G1 X119.86 Y142.244 E7.58269
G1 X119.409 Y142.283 E7.59775
